CultChromeLUT.cube
TITLE "Cult Chrome LUT"
LUT_3D_SIZE 9
DOMAIN_MIN 0.0 0.0 0.0
DOMAIN_MAX 1.0 1.0 1.0
0.000000 0.000000 0.000000
0.096415 0.000000 0.000000
0.217802 0.010074 0.004124
0.339188 0.027917 0.016522
0.460575 0.045760 0.028920
0.581962 0.063603 0.041318
0.703348 0.081446 0.053716
0.824735 0.099289 0.066114
0.946122 0.117131 0.078512
0.000000 0.083347 0.004578
0.112752 0.101190 0.016976
0.234139 0.119033 0.029374
0.355525 0.136876 0.041773
0.476912 0.154719 0.054171
0.598299 0.172562 0.066569
0.719685 0.190405 0.078967
0.841072 0.208248 0.091365
0.962458 0.226091 0.103763
0.007702 0.192306 0.029829
0.129089 0.210149 0.042227
0.250476 0.227992 0.054625
0.371862 0.245835 0.067023
0.493249 0.263678 0.079421
0.614636 0.281521 0.091819
0.736022 0.299364 0.104217
0.857409 0.317207 0.116615
0.978795 0.335050 0.129013
0.024039 0.301266 0.055080
0.145426 0.319108 0.067478
0.266813 0.336951 0.079876
0.388199 0.354794 0.092274
0.509586 0.372637 0.104672
0.630972 0.390480 0.117070
0.752359 0.408323 0.129468
0.873746 0.426166 0.141866
0.995132 0.444009 0.154264
0.040376 0.410225 0.080330
0.161763 0.428068 0.092728
0.283150 0.445911 0.105126
0.404536 0.463753 0.117524
0.525923 0.481596 0.129922
0.647309 0.499439 0.142320
0.768696 0.517282 0.154718
0.890083 0.535125 0.167116
1.000000 0.552968 0.179514
0.056713 0.519184 0.105581
0.178100 0.537027 0.117979
0.299486 0.554870 0.130377
0.420873 0.572713 0.142775
0.542260 0.590556 0.155173
0.663646 0.608398 0.167571
0.785033 0.626241 0.179969
0.906420 0.644084 0.192367
1.000000 0.661927 0.204765
0.073050 0.628143 0.130831
0.194437 0.645986 0.143229
0.315823 0.663829 0.155627
0.437210 0.681672 0.168025
0.558597 0.699515 0.180424
0.679983 0.717358 0.192822
0.801370 0.735201 0.205220
0.922757 0.753043 0.217618
1.000000 0.770886 0.230016
0.089387 0.737102 0.156082
0.210774 0.754945 0.168480
0.332160 0.772788 0.180878
0.453547 0.790631 0.193276
0.574934 0.808474 0.205674
0.696320 0.826317 0.218072
0.817707 0.844160 0.230470
0.939094 0.862003 0.242868
1.000000 0.879846 0.255266
0.105724 0.846061 0.181333
0.227111 0.863904 0.193731
0.348497 0.881747 0.206129
0.469884 0.899590 0.218527
0.591271 0.917433 0.230925
0.712657 0.935276 0.243323
0.834044 0.953119 0.255721
0.955431 0.970962 0.268119
1.000000 0.988805 0.280517
0.000000 0.000000 0.072002
0.090124 0.000000 0.084400
0.211511 0.015542 0.096798
0.332897 0.033385 0.109196
0.454284 0.051228 0.121594
0.575671 0.069071 0.133992
0.697057 0.086913 0.146390
0.818444 0.104756 0.158788
0.939831 0.122599 0.171186
0.000000 0.088815 0.097253
0.106461 0.106658 0.109651
0.227848 0.124501 0.122049
0.349234 0.142344 0.134447
0.470621 0.160187 0.146845
0.592008 0.178030 0.159243
0.713394 0.195873 0.171641
0.834781 0.213716 0.184039
0.956167 0.231558 0.196437
0.001411 0.197774 0.122503
0.122798 0.215617 0.134901
0.244185 0.233460 0.147299
0.365571 0.251303 0.159697
0.486958 0.269146 0.172095
0.608344 0.286989 0.184493
0.729731 0.304832 0.196891
0.851118 0.322675 0.209289
0.972504 0.340518 0.221687
0.017748 0.306733 0.147754
0.139135 0.324576 0.160152
0.260522 0.342419 0.172550
0.381908 0.360262 0.184948
0.503295 0.378105 0.197346
0.624681 0.395948 0.209744
0.746068 0.413791 0.222142
0.867455 0.431634 0.234540
0.988841 0.449477 0.246938
0.034085 0.415693 0.173004
0.155472 0.433535 0.185402
0.276859 0.451378 0.197800
0.398245 0.469221 0.210198
0.519632 0.487064 0.222596
0.641019 0.504907 0.234995
0.762405 0.522750 0.247393
0.883792 0.540593 0.259791
1.000000 0.558436 0.272189
0.050422 0.524652 0.198255
0.171809 0.542495 0.210653
0.293195 0.560338 0.223051
0.414582 0.578180 0.235449
0.535969 0.596023 0.247847
0.657355 0.613866 0.260245
0.778742 0.631709 0.272643
0.900129 0.649552 0.285041
1.000000 0.667395 0.297439
0.066759 0.633611 0.223506
0.188146 0.651454 0.235904
0.309532 0.669297 0.248302
0.430919 0.687140 0.260700
0.552306 0.704983 0.273098
0.673692 0.722825 0.285496
0.795079 0.740668 0.297894
0.916466 0.758511 0.310292
1.000000 0.776354 0.322690
0.083096 0.742570 0.248756
0.204483 0.760413 0.261154
0.325869 0.778256 0.273552
0.447256 0.796099 0.285950
0.568643 0.813942 0.298348
0.690029 0.831785 0.310746
0.811416 0.849628 0.323144
0.932803 0.867471 0.335542
1.000000 0.885313 0.347940
0.099433 0.851529 0.274007
0.220820 0.869372 0.286405
0.342206 0.887215 0.298803
0.463593 0.905058 0.311201
0.584980 0.922901 0.323599
0.706366 0.940744 0.335997
0.827753 0.958587 0.348395
0.949140 0.976430 0.360793
1.000000 0.994273 0.373191
0.000000 0.000000 0.164676
0.083833 0.003167 0.177074
0.205220 0.021010 0.189472
0.326606 0.038852 0.201870
0.447993 0.056695 0.214268
0.569380 0.074538 0.226666
0.690766 0.092381 0.239064
0.812153 0.110224 0.251462
0.933540 0.128067 0.263860
0.000000 0.094283 0.189927
0.100170 0.112126 0.202325
0.221557 0.129969 0.214723
0.342943 0.147812 0.227121
0.464330 0.165655 0.239519
0.585717 0.183497 0.251917
0.707103 0.201340 0.264315
0.828490 0.219183 0.276713
0.949876 0.237026 0.289111
0.000000 0.203242 0.215177
0.116507 0.221085 0.227575
0.237894 0.238928 0.239973
0.359280 0.256771 0.252371
0.480667 0.274614 0.264769
0.602054 0.292457 0.277167
0.723440 0.310300 0.289566
0.844827 0.328142 0.301964
0.966213 0.345985 0.314362
0.011457 0.312201 0.240428
0.132844 0.330044 0.252826
0.254231 0.347887 0.265224
0.375617 0.365730 0.277622
0.497004 0.383573 0.290020
0.618391 0.401416 0.302418
0.739777 0.419259 0.314816
0.861164 0.437102 0.327214
0.982550 0.454945 0.339612
0.027794 0.421160 0.265678
0.149181 0.439003 0.278076
0.270568 0.456846 0.290475
0.391954 0.474689 0.302873
0.513341 0.492532 0.315271
0.634727 0.510375 0.327669
0.756114 0.528218 0.340067
0.877501 0.546061 0.352465
0.998887 0.563904 0.364863
0.044131 0.530120 0.290929
0.165518 0.547962 0.303327
0.286904 0.565805 0.315725
0.408291 0.583648 0.328123
0.529678 0.601491 0.340521
0.651064 0.619334 0.352919
0.772451 0.637177 0.365317
0.893838 0.655020 0.377715
1.000000 0.672863 0.390113
0.060468 0.639079 0.316180
0.181855 0.656922 0.328578
0.303241 0.674765 0.340976
0.424628 0.692607 0.353374
0.546015 0.710450 0.365772
0.667401 0.728293 0.378170
0.788788 0.746136 0.390568
0.910175 0.763979 0.402966
1.000000 0.781822 0.415364
0.076805 0.748038 0.341430
0.198192 0.765881 0.353828
0.319578 0.783724 0.366226
0.440965 0.801567 0.378624
0.562352 0.819410 0.391022
0.683738 0.837252 0.403420
0.805125 0.855095 0.415818
0.926512 0.872938 0.428216
1.000000 0.890781 0.440615
0.093142 0.856997 0.366681
0.214529 0.874840 0.379079
0.335915 0.892683 0.391477
0.457302 0.910526 0.403875
0.578689 0.928369 0.416273
0.700075 0.946212 0.428671
0.821462 0.964055 0.441069
0.942849 0.981897 0.453467
1.000000 0.999740 0.465865
0.000000 0.000000 0.257350
0.077542 0.008634 0.269748
0.198929 0.026477 0.282146
0.320315 0.044320 0.294544
0.441702 0.062163 0.306942
0.563089 0.080006 0.319340
0.684475 0.097849 0.331738
0.805862 0.115692 0.344137
0.927248 0.133535 0.356535
0.000000 0.099751 0.282601
0.093879 0.117594 0.294999
0.215266 0.135437 0.307397
0.336652 0.153279 0.319795
0.458039 0.171122 0.332193
0.579426 0.188965 0.344591
0.700812 0.206808 0.356989
0.822199 0.224651 0.369387
0.943586 0.242494 0.381785
0.000000 0.208710 0.307851
0.110216 0.226553 0.320249
0.231603 0.244396 0.332648
0.352989 0.262239 0.345046
0.474376 0.280082 0.357444
0.595762 0.297924 0.369842
0.717149 0.315767 0.382240
0.838536 0.333610 0.394638
0.959922 0.351453 0.407036
0.005166 0.317669 0.333102
0.126553 0.335512 0.345500
0.247940 0.353355 0.357898
0.369326 0.371198 0.370296
0.490713 0.389041 0.382694
0.612100 0.406884 0.395092
0.733486 0.424727 0.407490
0.854873 0.442569 0.419888
0.976259 0.460412 0.432286
0.021503 0.426628 0.358353
0.142890 0.444471 0.370751
0.264277 0.462314 0.383149
0.385663 0.480157 0.395547
0.507050 0.498000 0.407945
0.628436 0.515843 0.420343
0.749823 0.533686 0.432741
0.871210 0.551529 0.445139
0.992596 0.569372 0.457537
0.037840 0.535587 0.383603
0.159227 0.553430 0.396001
0.280613 0.571273 0.408399
0.402000 0.589116 0.420797
0.523387 0.606959 0.433195
0.644773 0.624802 0.445593
0.766160 0.642645 0.457991
0.887547 0.660488 0.470389
1.000000 0.678331 0.482787
0.054177 0.644547 0.408854
0.175564 0.662389 0.421252
0.296950 0.680232 0.433650
0.418337 0.698075 0.446048
0.539724 0.715918 0.458446
0.661110 0.733761 0.470844
0.782497 0.751604 0.483242
0.903884 0.769447 0.495640
1.000000 0.787290 0.508038
0.070514 0.753506 0.434104
0.191901 0.771349 0.446502
0.313287 0.789191 0.458900
0.434674 0.807034 0.471298
0.556061 0.824877 0.483697
0.677447 0.842720 0.496095
0.798834 0.860563 0.508493
0.920221 0.878406 0.520891
1.000000 0.896249 0.533289
0.086851 0.862465 0.459355
0.208238 0.880308 0.471753
0.329624 0.898151 0.484151
0.451011 0.915994 0.496549
0.572398 0.933837 0.508947
0.693784 0.951679 0.521345
0.815171 0.969522 0.533743
0.936558 0.987365 0.546141
1.000000 1.000000 0.558539
0.000000 0.000000 0.350024
0.071251 0.014102 0.362422
0.192638 0.031945 0.374820
0.314024 0.049788 0.387218
0.435411 0.067631 0.399617
0.556798 0.085474 0.412015
0.678184 0.103317 0.424413
0.799571 0.121160 0.436811
0.920958 0.139003 0.449209
0.000000 0.105218 0.375275
0.087588 0.123061 0.387673
0.208975 0.140904 0.400071
0.330361 0.158747 0.412469
0.451748 0.176590 0.424867
0.573135 0.194433 0.437265
0.694521 0.212276 0.449663
0.815908 0.230119 0.462061
0.937295 0.247962 0.474459
0.000000 0.214178 0.400526
0.103925 0.232021 0.412924
0.225312 0.249863 0.425322
0.346698 0.267706 0.437720
0.468085 0.285549 0.450118
0.589472 0.303392 0.462516
0.710858 0.321235 0.474914
0.832245 0.339078 0.487312
0.953631 0.356921 0.499710
0.000000 0.323137 0.425776
0.120262 0.340980 0.438174
0.241649 0.358823 0.450572
0.363035 0.376666 0.462970
0.484422 0.394508 0.475368
0.605808 0.412351 0.487766
0.727195 0.430194 0.500164
0.848582 0.448037 0.512562
0.969968 0.465880 0.524960
0.015212 0.432096 0.451027
0.136599 0.449939 0.463425
0.257986 0.467782 0.475823
0.379372 0.485625 0.488221
0.500759 0.503468 0.500619
0.622145 0.521311 0.513017
0.743532 0.539154 0.525415
0.864919 0.556996 0.537813
0.986305 0.574839 0.550211
0.031549 0.541055 0.476277
0.152936 0.558898 0.488675
0.274322 0.576741 0.501073
0.395709 0.594584 0.513471
0.517096 0.612427 0.525869
0.638482 0.630270 0.538267
0.759869 0.648113 0.550665
0.881256 0.665956 0.563064
1.000000 0.683798 0.575462
0.047886 0.650014 0.501528
0.169273 0.667857 0.513926
0.290659 0.685700 0.526324
0.412046 0.703543 0.538722
0.533433 0.721386 0.551120
0.654819 0.739229 0.563518
0.776206 0.757072 0.575916
0.897593 0.774915 0.588314
1.000000 0.792758 0.600712
0.064223 0.758973 0.526779
0.185610 0.776816 0.539177
0.306996 0.794659 0.551575
0.428383 0.812502 0.563973
0.549770 0.830345 0.576371
0.671156 0.848188 0.588769
0.792543 0.866031 0.601167
0.913930 0.883874 0.613565
1.000000 0.901717 0.625963
0.080560 0.867933 0.552029
0.201947 0.885776 0.564427
0.323333 0.903618 0.576825
0.444720 0.921461 0.589223
0.566107 0.939304 0.601621
0.687493 0.957147 0.614019
0.808880 0.974990 0.626417
0.930267 0.992833 0.638815
1.000000 1.000000 0.651213
0.000000 0.001727 0.442698
0.064960 0.019570 0.455097
0.186347 0.037413 0.467495
0.307733 0.055256 0.479893
0.429120 0.073099 0.492291
0.550507 0.090942 0.504689
0.671893 0.108785 0.517087
0.793280 0.126628 0.529485
0.914667 0.144470 0.541883
0.000000 0.110686 0.467949
0.081297 0.128529 0.480347
0.202684 0.146372 0.492745
0.324070 0.164215 0.505143
0.445457 0.182058 0.517541
0.566844 0.199901 0.529939
0.688230 0.217744 0.542337
0.809617 0.235587 0.554735
0.931003 0.253430 0.567133
0.000000 0.219645 0.493200
0.097634 0.237488 0.505598
0.219021 0.255331 0.517996
0.340407 0.273174 0.530394
0.461794 0.291017 0.542792
0.583180 0.308860 0.555190
0.704567 0.326703 0.567588
0.825954 0.344546 0.579986
0.947340 0.362389 0.592384
0.000000 0.328605 0.518450
0.113971 0.346448 0.530848
0.235358 0.364290 0.543246
0.356744 0.382133 0.555644
0.478131 0.399976 0.568042
0.599517 0.417819 0.580440
0.720904 0.435662 0.592838
0.842291 0.453505 0.605237
0.963677 0.471348 0.617635
0.008921 0.437564 0.543701
0.130308 0.455407 0.556099
0.251695 0.473250 0.568497
0.373081 0.491093 0.580895
0.494468 0.508936 0.593293
0.615855 0.526778 0.605691
0.737241 0.544621 0.618089
0.858628 0.562464 0.630487
0.980014 0.580307 0.642885
0.025258 0.546523 0.568951
0.146645 0.564366 0.581349
0.268031 0.582209 0.593748
0.389418 0.600052 0.606146
0.510805 0.617895 0.618544
0.632191 0.635738 0.630942
0.753578 0.653580 0.643340
0.874965 0.671423 0.655738
0.996351 0.689266 0.668136
0.041595 0.655482 0.594202
0.162982 0.673325 0.606600
0.284368 0.691168 0.618998
0.405755 0.709011 0.631396
0.527142 0.726854 0.643794
0.648528 0.744697 0.656192
0.769915 0.762540 0.668590
0.891302 0.780383 0.680988
1.000000 0.798225 0.693386
0.057932 0.764441 0.619453
0.179319 0.782284 0.631851
0.300705 0.800127 0.644249
0.422092 0.817970 0.656647
0.543479 0.835813 0.669045
0.664865 0.853656 0.681443
0.786252 0.871499 0.693841
0.907639 0.889342 0.706239
1.000000 0.907185 0.718637
0.074269 0.873400 0.644703
0.195656 0.891243 0.657101
0.317042 0.909086 0.669499
0.438429 0.926929 0.681897
0.559816 0.944772 0.694295
0.681202 0.962615 0.706693
0.802589 0.980458 0.719091
0.923976 0.998301 0.731489
1.000000 1.000000 0.743887
0.000000 0.007195 0.535373
0.058669 0.025038 0.547771
0.180056 0.042881 0.560169
0.301442 0.060724 0.572567
0.422829 0.078567 0.584965
0.544216 0.096410 0.597363
0.665602 0.114252 0.609761
0.786989 0.132095 0.622159
0.908376 0.149938 0.634557
0.000000 0.116154 0.560623
0.075006 0.133997 0.573021
0.196393 0.151840 0.585419
0.317779 0.169683 0.597817
0.439166 0.187526 0.610215
0.560552 0.205369 0.622613
0.681939 0.223212 0.635011
0.803326 0.241055 0.647409
0.924712 0.258897 0.659808
0.000000 0.225113 0.585874
0.091343 0.242956 0.598272
0.212730 0.260799 0.610670
0.334116 0.278642 0.623068
0.455503 0.296485 0.635466
0.576890 0.314328 0.647864
0.698276 0.332171 0.660262
0.819663 0.350014 0.672660
0.941049 0.367857 0.685058
0.000000 0.334072 0.611124
0.107680 0.351915 0.623522
0.229067 0.369758 0.635920
0.350453 0.387601 0.648318
0.471840 0.405444 0.660717
0.593226 0.423287 0.673115
0.714613 0.441130 0.685513
0.836000 0.458973 0.697911
0.957386 0.476816 0.710309
0.002630 0.443032 0.636375
0.124017 0.460875 0.648773
0.245403 0.478717 0.661171
0.366790 0.496560 0.673569
0.488177 0.514403 0.685967
0.609563 0.532246 0.698365
0.730950 0.550089 0.710763
0.852337 0.567932 0.723161
0.973723 0.585775 0.735559
0.018967 0.551991 0.661626
0.140354 0.569834 0.674024
0.261740 0.587677 0.686422
0.383127 0.605519 0.698820
0.504514 0.623362 0.711218
0.625900 0.641205 0.723616
0.747287 0.659048 0.736014
0.868674 0.676891 0.748412
0.990060 0.694734 0.760810
0.035304 0.660950 0.686876
0.156691 0.678793 0.699274
0.278077 0.696636 0.711672
0.399464 0.714479 0.724070
0.520851 0.732322 0.736468
0.642237 0.750165 0.748866
0.763624 0.768007 0.761264
0.885011 0.785850 0.773662
1.000000 0.803693 0.786060
0.051641 0.769909 0.712127
0.173028 0.787752 0.724525
0.294414 0.805595 0.736923
0.415801 0.823438 0.749321
0.537188 0.841281 0.761719
0.658574 0.859124 0.774117
0.779961 0.876967 0.786515
0.901348 0.894809 0.798913
1.000000 0.912652 0.811311
0.067978 0.878868 0.737377
0.189365 0.896711 0.749775
0.310751 0.914554 0.762173
0.432138 0.932397 0.774571
0.553525 0.950240 0.786970
0.674911 0.968083 0.799368
0.796298 0.985926 0.811766
0.917685 1.000000 0.824164
1.000000 1.000000 0.836562
0.000000 0.012663 0.628047
0.052378 0.030506 0.640445
0.173765 0.048349 0.652843
0.295151 0.066192 0.665241
0.416538 0.084034 0.677639
0.537925 0.101877 0.690037
0.659311 0.119720 0.702435
0.780698 0.137563 0.714833
0.902085 0.155406 0.727231
0.000000 0.121622 0.653297
0.068715 0.139465 0.665695
0.190102 0.157308 0.678093
0.311488 0.175151 0.690491
0.432875 0.192994 0.702890
0.554262 0.210837 0.715288
0.675648 0.228679 0.727686
0.797035 0.246522 0.740084
0.918422 0.264365 0.752482
0.000000 0.230581 0.678548
0.085052 0.248424 0.690946
0.206439 0.266267 0.703344
0.327825 0.284110 0.715742
0.449212 0.301953 0.728140
0.570598 0.319796 0.740538
0.691985 0.337639 0.752936
0.813372 0.355482 0.765334
0.934758 0.373324 0.777732
0.000000 0.339540 0.703799
0.101389 0.357383 0.716197
0.222776 0.375226 0.728595
0.344162 0.393069 0.740993
0.465549 0.410912 0.753391
0.586935 0.428755 0.765789
0.708322 0.446598 0.778187
0.829709 0.464441 0.790585
0.951095 0.482284 0.802983
0.000000 0.448499 0.729049
0.117726 0.466342 0.741447
0.239112 0.484185 0.753845
0.360499 0.502028 0.766243
0.481886 0.519871 0.778641
0.603272 0.537714 0.791039
0.724659 0.555557 0.803437
0.846046 0.573400 0.815835
0.967432 0.591243 0.828233
0.012676 0.557459 0.754300
0.134063 0.575301 0.766698
0.255449 0.593144 0.779096
0.376836 0.610987 0.791494
0.498223 0.628830 0.803892
0.619609 0.646673 0.816290
0.740996 0.664516 0.828688
0.862383 0.682359 0.841086
0.983769 0.700202 0.853484
0.029013 0.666418 0.779550
0.150400 0.684261 0.791948
0.271786 0.702104 0.804346
0.393173 0.719946 0.816744
0.514560 0.737789 0.829142
0.635946 0.755632 0.841540
0.757333 0.773475 0.853939
0.878720 0.791318 0.866337
1.000000 0.809161 0.878735
0.045350 0.775377 0.804801
0.166737 0.793220 0.817199
0.288123 0.811063 0.829597
0.409510 0.828906 0.841995
0.530897 0.846749 0.854393
0.652283 0.864591 0.866791
0.773670 0.882434 0.879189
0.895057 0.900277 0.891587
1.000000 0.918120 0.903985
0.061687 0.884336 0.830051
0.183074 0.902179 0.842450
0.304460 0.920022 0.854848
0.425847 0.937865 0.867246
0.547234 0.955708 0.879644
0.668620 0.973551 0.892042
0.790007 0.991394 0.904440
0.911394 1.000000 0.916838
1.000000 1.000000 0.929236
0.000000 0.018131 0.720721
0.046087 0.035973 0.733119
0.167474 0.053816 0.745517
0.288860 0.071659 0.757915
0.410247 0.089502 0.770313
0.531634 0.107345 0.782711
0.653020 0.125188 0.795109
0.774407 0.143031 0.807507
0.895793 0.160874 0.819905
0.000000 0.127090 0.745972
0.062424 0.144933 0.758370
0.183811 0.162776 0.770768
0.305197 0.180618 0.783166
0.426584 0.198461 0.795564
0.547971 0.216304 0.807962
0.669357 0.234147 0.820360
0.790744 0.251990 0.832758
0.912130 0.269833 0.845156
0.000000 0.236049 0.771222
0.078761 0.253892 0.783620
0.200148 0.271735 0.796018
0.321534 0.289578 0.808416
0.442921 0.307421 0.820814
0.564307 0.325263 0.833212
0.685694 0.343106 0.845610
0.807081 0.360949 0.858008
0.928467 0.378792 0.870406
0.000000 0.345008 0.796473
0.095098 0.362851 0.808871
0.216485 0.380694 0.821269
0.337871 0.398537 0.833667
0.459258 0.416380 0.846065
0.580644 0.434223 0.858463
0.702031 0.452066 0.870861
0.823418 0.469908 0.883259
0.944804 0.487751 0.895657
0.000000 0.453967 0.821723
0.111435 0.471810 0.834121
0.232821 0.489653 0.846519
0.354208 0.507496 0.858917
0.475595 0.525339 0.871315
0.596981 0.543182 0.883713
0.718368 0.561025 0.896111
0.839755 0.578868 0.908509
0.961141 0.596711 0.920908
0.006385 0.562926 0.846974
0.127772 0.580769 0.859372
0.249158 0.598612 0.871770
0.370545 0.616455 0.884168
0.491932 0.634298 0.896566
0.613318 0.652141 0.908964
0.734705 0.669984 0.921362
0.856092 0.687827 0.933760
0.977478 0.705670 0.946158
0.022722 0.671886 0.872224
0.144109 0.689728 0.884623
0.265495 0.707571 0.897021
0.386882 0.725414 0.909419
0.508269 0.743257 0.921817
0.629655 0.761100 0.934215
0.751042 0.778943 0.946613
0.872429 0.796786 0.959011
0.993815 0.814629 0.971409
0.039059 0.780845 0.897475
0.160446 0.798688 0.909873
0.281832 0.816531 0.922271
0.403219 0.834373 0.934669
0.524606 0.852216 0.947067
0.645992 0.870059 0.959465
0.767379 0.887902 0.971863
0.888766 0.905745 0.984261
1.000000 0.923588 0.996659
0.055396 0.889804 0.922726
0.176783 0.907647 0.935124
0.298169 0.925490 0.947522
0.419556 0.943333 0.959920
0.540943 0.961176 0.972318
0.662329 0.979018 0.984716
0.783716 0.996861 0.997114
0.905103 1.000000 1.000000
1.000000 1.000000 1.000000
