CultChromeLUT.cube
TITLE "Cult Chrome LUT"
LUT_3D_SIZE 33
DOMAIN_MIN 0.0 0.0 0.0
DOMAIN_MAX 1.0 1.0 1.0
0.000000 0.000000 0.000000
0.005375 0.000000 0.000000
0.035722 0.000000 0.000000
0.066068 0.000000 0.000000
0.096415 0.000000 0.000000
0.126762 0.000000 0.000000
0.157108 0.001152 0.000000
0.187455 0.005613 0.001024
0.217802 0.010074 0.004124
0.248148 0.014535 0.007223
0.278495 0.018995 0.010323
0.308842 0.023456 0.013422
0.339188 0.027917 0.016522
0.369535 0.032378 0.019621
0.399882 0.036838 0.022721
0.430228 0.041299 0.025820
0.460575 0.045760 0.028920
0.490922 0.050221 0.032019
0.521268 0.054681 0.035119
0.551615 0.059142 0.038219
0.581962 0.063603 0.041318
0.612308 0.068063 0.044418
0.642655 0.072524 0.047517
0.673002 0.076985 0.050617
0.703348 0.081446 0.053716
0.733695 0.085906 0.056816
0.764042 0.090367 0.059915
0.794388 0.094828 0.063015
0.824735 0.099289 0.066114
0.855082 0.103749 0.069214
0.885428 0.108210 0.072313
0.915775 0.112671 0.075413
0.946122 0.117131 0.078512
0.000000 0.001628 0.000000
0.009459 0.006089 0.000000
0.039806 0.010549 0.000000
0.070153 0.015010 0.000000
0.100499 0.019471 0.000000
0.130846 0.023932 0.001138
0.161193 0.028392 0.004238
0.191539 0.032853 0.007337
0.221886 0.037314 0.010437
0.252233 0.041774 0.013536
0.282579 0.046235 0.016636
0.312926 0.050696 0.019735
0.343272 0.055157 0.022835
0.373619 0.059617 0.025934
0.403966 0.064078 0.029034
0.434312 0.068539 0.032133
0.464659 0.073000 0.035233
0.495006 0.077460 0.038332
0.525353 0.081921 0.041432
0.555699 0.086382 0.044531
0.586046 0.090843 0.047631
0.616392 0.095303 0.050730
0.646739 0.099764 0.053830
0.677086 0.104225 0.056929
0.707432 0.108685 0.060029
0.737779 0.113146 0.063128
0.768126 0.117607 0.066228
0.798472 0.122068 0.069327
0.828819 0.126528 0.072427
0.859166 0.130989 0.075526
0.889512 0.135450 0.078626
0.919859 0.139911 0.081725
0.950206 0.144371 0.084825
0.000000 0.028868 0.000000
0.013543 0.033328 0.000000
0.043890 0.037789 0.000000
0.074237 0.042250 0.001252
0.104583 0.046711 0.004351
0.134930 0.051171 0.007451
0.165277 0.055632 0.010550
0.195623 0.060093 0.013650
0.225970 0.064554 0.016749
0.256317 0.069014 0.019849
0.286663 0.073475 0.022948
0.317010 0.077936 0.026048
0.347357 0.082396 0.029147
0.377703 0.086857 0.032247
0.408050 0.091318 0.035346
0.438397 0.095779 0.038446
0.468743 0.100239 0.041545
0.499090 0.104700 0.044645
0.529437 0.109161 0.047744
0.559783 0.113622 0.050844
0.590130 0.118082 0.053943
0.620477 0.122543 0.057043
0.650823 0.127004 0.060142
0.681170 0.131464 0.063242
0.711517 0.135925 0.066341
0.741863 0.140386 0.069441
0.772210 0.144847 0.072540
0.802557 0.149307 0.075640
0.832903 0.153768 0.078739
0.863250 0.158229 0.081839
0.893597 0.162690 0.084938
0.923943 0.167150 0.088038
0.954290 0.171611 0.091137
0.000000 0.056107 0.000000
0.017628 0.060568 0.001365
0.047974 0.065029 0.004465
0.078321 0.069490 0.007564
0.108668 0.073950 0.010664
0.139014 0.078411 0.013763
0.169361 0.082872 0.016863
0.199708 0.087333 0.019962
0.230054 0.091793 0.023062
0.260401 0.096254 0.026161
0.290748 0.100715 0.029261
0.321094 0.105176 0.032360
0.351441 0.109636 0.035460
0.381788 0.114097 0.038559
0.412134 0.118558 0.041659
0.442481 0.123018 0.044758
0.472828 0.127479 0.047858
0.503174 0.131940 0.050957
0.533521 0.136401 0.054057
0.563868 0.140861 0.057156
0.594214 0.145322 0.060256
0.624561 0.149783 0.063355
0.654908 0.154244 0.066455
0.685254 0.158704 0.069554
0.715601 0.163165 0.072654
0.745948 0.167626 0.075754
0.776294 0.172086 0.078853
0.806641 0.176547 0.081953
0.836988 0.181008 0.085052
0.867334 0.185469 0.088152
0.897681 0.189929 0.091251
0.928028 0.194390 0.094351
0.958374 0.198851 0.097450
0.000000 0.083347 0.004578
0.021712 0.087808 0.007678
0.052059 0.092269 0.010777
0.082405 0.096729 0.013877
0.112752 0.101190 0.016976
0.143099 0.105651 0.020076
0.173445 0.110112 0.023175
0.203792 0.114572 0.026275
0.234139 0.119033 0.029374
0.264485 0.123494 0.032474
0.294832 0.127955 0.035574
0.325179 0.132415 0.038673
0.355525 0.136876 0.041773
0.385872 0.141337 0.044872
0.416219 0.145797 0.047972
0.446565 0.150258 0.051071
0.476912 0.154719 0.054171
0.507259 0.159180 0.057270
0.537605 0.163640 0.060370
0.567952 0.168101 0.063469
0.598299 0.172562 0.066569
0.628645 0.177023 0.069668
0.658992 0.181483 0.072768
0.689339 0.185944 0.075867
0.719685 0.190405 0.078967
0.750032 0.194866 0.082066
0.780379 0.199326 0.085166
0.810725 0.203787 0.088265
0.841072 0.208248 0.091365
0.871418 0.212708 0.094464
0.901765 0.217169 0.097564
0.932112 0.221630 0.100663
0.962458 0.226091 0.103763
0.000000 0.110587 0.010891
0.025796 0.115048 0.013991
0.056143 0.119509 0.017090
0.086489 0.123969 0.020190
0.116836 0.128430 0.023289
0.147183 0.132891 0.026389
0.177529 0.137351 0.029488
0.207876 0.141812 0.032588
0.238223 0.146273 0.035687
0.268569 0.150734 0.038787
0.298916 0.155194 0.041886
0.329263 0.159655 0.044986
0.359609 0.164116 0.048085
0.389956 0.168577 0.051185
0.420303 0.173037 0.054284
0.450649 0.177498 0.057384
0.480996 0.181959 0.060483
0.511343 0.186419 0.063583
0.541689 0.190880 0.066682
0.572036 0.195341 0.069782
0.602383 0.199802 0.072881
0.632729 0.204262 0.075981
0.663076 0.208723 0.079080
0.693423 0.213184 0.082180
0.723769 0.217645 0.085279
0.754116 0.222105 0.088379
0.784463 0.226566 0.091478
0.814809 0.231027 0.094578
0.845156 0.235488 0.097677
0.875503 0.239948 0.100777
0.905849 0.244409 0.103876
0.936196 0.248870 0.106976
0.966543 0.253330 0.110075
0.000000 0.137827 0.017204
0.029880 0.142288 0.020303
0.060227 0.146748 0.023403
0.090574 0.151209 0.026502
0.120920 0.155670 0.029602
0.151267 0.160130 0.032701
0.181614 0.164591 0.035801
0.211960 0.169052 0.038900
0.242307 0.173513 0.042000
0.272654 0.177973 0.045099
0.303000 0.182434 0.048199
0.333347 0.186895 0.051298
0.363694 0.191356 0.054398
0.394040 0.195816 0.057497
0.424387 0.200277 0.060597
0.454734 0.204738 0.063696
0.485080 0.209199 0.066796
0.515427 0.213659 0.069895
0.545774 0.218120 0.072995
0.576120 0.222581 0.076094
0.606467 0.227041 0.079194
0.636814 0.231502 0.082293
0.667160 0.235963 0.085393
0.697507 0.240424 0.088492
0.727854 0.244884 0.091592
0.758200 0.249345 0.094691
0.788547 0.253806 0.097791
0.818894 0.258267 0.100890
0.849240 0.262727 0.103990
0.879587 0.267188 0.107089
0.909934 0.271649 0.110189
0.940280 0.276109 0.113288
0.970627 0.280570 0.116388
0.003618 0.165067 0.023516
0.033965 0.169527 0.026616
0.064311 0.173988 0.029715
0.094658 0.178449 0.032815
0.125005 0.182910 0.035914
0.155351 0.187370 0.039014
0.185698 0.191831 0.042113
0.216045 0.196292 0.045213
0.246391 0.200752 0.048312
0.276738 0.205213 0.051412
0.307085 0.209674 0.054511
0.337431 0.214135 0.057611
0.367778 0.218595 0.060710
0.398125 0.223056 0.063810
0.428471 0.227517 0.066909
0.458818 0.231978 0.070009
0.489165 0.236438 0.073109
0.519511 0.240899 0.076208
0.549858 0.245360 0.079308
0.580205 0.249821 0.082407
0.610551 0.254281 0.085507
0.640898 0.258742 0.088606
0.671245 0.263203 0.091706
0.701591 0.267663 0.094805
0.731938 0.272124 0.097905
0.762285 0.276585 0.101004
0.792631 0.281046 0.104104
0.822978 0.285506 0.107203
0.853325 0.289967 0.110303
0.883671 0.294428 0.113402
0.914018 0.298889 0.116502
0.944365 0.303349 0.119601
0.974711 0.307810 0.122701
0.007702 0.192306 0.029829
0.038049 0.196767 0.032929
0.068396 0.201228 0.036028
0.098742 0.205689 0.039128
0.129089 0.210149 0.042227
0.159436 0.214610 0.045327
0.189782 0.219071 0.048426
0.220129 0.223532 0.051526
0.250476 0.227992 0.054625
0.280822 0.232453 0.057725
0.311169 0.236914 0.060824
0.341516 0.241374 0.063924
0.371862 0.245835 0.067023
0.402209 0.250296 0.070123
0.432556 0.254757 0.073222
0.462902 0.259217 0.076322
0.493249 0.263678 0.079421
0.523596 0.268139 0.082521
0.553942 0.272600 0.085620
0.584289 0.277060 0.088720
0.614636 0.281521 0.091819
0.644982 0.285982 0.094919
0.675329 0.290442 0.098018
0.705675 0.294903 0.101118
0.736022 0.299364 0.104217
0.766369 0.303825 0.107317
0.796715 0.308285 0.110416
0.827062 0.312746 0.113516
0.857409 0.317207 0.116615
0.887756 0.321668 0.119715
0.918102 0.326128 0.122814
0.948449 0.330589 0.125914
0.978795 0.335050 0.129013
0.011786 0.219546 0.036142
0.042133 0.224007 0.039241
0.072480 0.228468 0.042341
0.102826 0.232928 0.045440
0.133173 0.237389 0.048540
0.163520 0.241850 0.051639
0.193866 0.246311 0.054739
0.224213 0.250771 0.057838
0.254560 0.255232 0.060938
0.284906 0.259693 0.064037
0.315253 0.264154 0.067137
0.345600 0.268614 0.070236
0.375946 0.273075 0.073336
0.406293 0.277536 0.076435
0.436640 0.281996 0.079535
0.466986 0.286457 0.082634
0.497333 0.290918 0.085734
0.527680 0.295379 0.088833
0.558026 0.299839 0.091933
0.588373 0.304300 0.095032
0.618720 0.308761 0.098132
0.649066 0.313222 0.101231
0.679413 0.317682 0.104331
0.709760 0.322143 0.107430
0.740106 0.326604 0.110530
0.770453 0.331064 0.113629
0.800800 0.335525 0.116729
0.831146 0.339986 0.119828
0.861493 0.344447 0.122928
0.891840 0.348907 0.126027
0.922186 0.353368 0.129127
0.952533 0.357829 0.132226
0.982880 0.362290 0.135326
0.015871 0.246786 0.042454
0.046217 0.251247 0.045554
0.076564 0.255707 0.048653
0.106911 0.260168 0.051753
0.137257 0.264629 0.054852
0.167604 0.269090 0.057952
0.197951 0.273550 0.061051
0.228297 0.278011 0.064151
0.258644 0.282472 0.067250
0.288991 0.286933 0.070350
0.319337 0.291393 0.073449
0.349684 0.295854 0.076549
0.380031 0.300315 0.079648
0.410377 0.304776 0.082748
0.440724 0.309236 0.085847
0.471071 0.313697 0.088947
0.501417 0.318158 0.092046
0.531764 0.322618 0.095146
0.562111 0.327079 0.098245
0.592457 0.331540 0.101345
0.622804 0.336001 0.104444
0.653151 0.340461 0.107544
0.683497 0.344922 0.110644
0.713844 0.349383 0.113743
0.744191 0.353844 0.116843
0.774537 0.358304 0.119942
0.804884 0.362765 0.123042
0.835231 0.367226 0.126141
0.865577 0.371686 0.129241
0.895924 0.376147 0.132340
0.926271 0.380608 0.135440
0.956617 0.385069 0.138539
0.986964 0.389529 0.141639
0.019955 0.274026 0.048767
0.050302 0.278487 0.051866
0.080648 0.282947 0.054966
0.110995 0.287408 0.058065
0.141342 0.291869 0.061165
0.171688 0.296329 0.064265
0.202035 0.300790 0.067364
0.232382 0.305251 0.070464
0.262728 0.309712 0.073563
0.293075 0.314172 0.076663
0.323422 0.318633 0.079762
0.353768 0.323094 0.082862
0.384115 0.327555 0.085961
0.414462 0.332015 0.089061
0.444808 0.336476 0.092160
0.475155 0.340937 0.095260
0.505502 0.345397 0.098359
0.535848 0.349858 0.101459
0.566195 0.354319 0.104558
0.596542 0.358780 0.107658
0.626888 0.363240 0.110757
0.657235 0.367701 0.113857
0.687582 0.372162 0.116956
0.717928 0.376623 0.120056
0.748275 0.381083 0.123155
0.778622 0.385544 0.126255
0.808968 0.390005 0.129354
0.839315 0.394466 0.132454
0.869662 0.398926 0.135553
0.900008 0.403387 0.138653
0.930355 0.407848 0.141752
0.960702 0.412308 0.144852
0.991048 0.416769 0.147951
0.024039 0.301266 0.055080
0.054386 0.305726 0.058179
0.084733 0.310187 0.061279
0.115079 0.314648 0.064378
0.145426 0.319108 0.067478
0.175773 0.323569 0.070577
0.206119 0.328030 0.073677
0.236466 0.332491 0.076776
0.266813 0.336951 0.079876
0.297159 0.341412 0.082975
0.327506 0.345873 0.086075
0.357853 0.350334 0.089174
0.388199 0.354794 0.092274
0.418546 0.359255 0.095373
0.448893 0.363716 0.098473
0.479239 0.368177 0.101572
0.509586 0.372637 0.104672
0.539932 0.377098 0.107771
0.570279 0.381559 0.110871
0.600626 0.386019 0.113970
0.630972 0.390480 0.117070
0.661319 0.394941 0.120169
0.691666 0.399402 0.123269
0.722013 0.403862 0.126368
0.752359 0.408323 0.129468
0.782706 0.412784 0.132567
0.813052 0.417245 0.135667
0.843399 0.421705 0.138766
0.873746 0.426166 0.141866
0.904092 0.430627 0.144965
0.934439 0.435088 0.148065
0.964786 0.439548 0.151164
0.995132 0.444009 0.154264
0.028123 0.328505 0.061392
0.058470 0.332966 0.064492
0.088817 0.337427 0.067591
0.119163 0.341888 0.070691
0.149510 0.346348 0.073790
0.179857 0.350809 0.076890
0.210203 0.355270 0.079989
0.240550 0.359730 0.083089
0.270897 0.364191 0.086188
0.301243 0.368652 0.089288
0.331590 0.373113 0.092387
0.361937 0.377573 0.095487
0.392283 0.382034 0.098586
0.422630 0.386495 0.101686
0.452977 0.390956 0.104785
0.483323 0.395416 0.107885
0.513670 0.399877 0.110984
0.544017 0.404338 0.114084
0.574363 0.408799 0.117183
0.604710 0.413259 0.120283
0.635057 0.417720 0.123382
0.665403 0.422181 0.126482
0.695750 0.426641 0.129581
0.726097 0.431102 0.132681
0.756443 0.435563 0.135780
0.786790 0.440024 0.138880
0.817137 0.444484 0.141979
0.847483 0.448945 0.145079
0.877830 0.453406 0.148179
0.908177 0.457867 0.151278
0.938523 0.462327 0.154378
0.968870 0.466788 0.157477
0.999217 0.471249 0.160577
0.032208 0.355745 0.067705
0.062554 0.360206 0.070804
0.092901 0.364667 0.073904
0.123248 0.369127 0.077003
0.153594 0.373588 0.080103
0.183941 0.378049 0.083202
0.214288 0.382510 0.086302
0.244634 0.386970 0.089401
0.274981 0.391431 0.092501
0.305328 0.395892 0.095600
0.335674 0.400352 0.098700
0.366021 0.404813 0.101800
0.396368 0.409274 0.104899
0.426714 0.413735 0.107999
0.457061 0.418195 0.111098
0.487408 0.422656 0.114198
0.517754 0.427117 0.117297
0.548101 0.431578 0.120397
0.578448 0.436038 0.123496
0.608794 0.440499 0.126596
0.639141 0.444960 0.129695
0.669488 0.449420 0.132795
0.699834 0.453881 0.135894
0.730181 0.458342 0.138994
0.760528 0.462803 0.142093
0.790874 0.467263 0.145193
0.821221 0.471724 0.148292
0.851568 0.476185 0.151392
0.881914 0.480646 0.154491
0.912261 0.485106 0.157591
0.942608 0.489567 0.160690
0.972954 0.494028 0.163790
1.000000 0.498489 0.166889
0.036292 0.382985 0.074018
0.066639 0.387446 0.077117
0.096985 0.391906 0.080217
0.127332 0.396367 0.083316
0.157679 0.400828 0.086416
0.188025 0.405289 0.089515
0.218372 0.409749 0.092615
0.248719 0.414210 0.095714
0.279065 0.418671 0.098814
0.309412 0.423132 0.101913
0.339759 0.427592 0.105013
0.370105 0.432053 0.108112
0.400452 0.436514 0.111212
0.430799 0.440974 0.114311
0.461145 0.445435 0.117411
0.491492 0.449896 0.120510
0.521839 0.454357 0.123610
0.552185 0.458817 0.126709
0.582532 0.463278 0.129809
0.612879 0.467739 0.132908
0.643225 0.472200 0.136008
0.673572 0.476660 0.139107
0.703919 0.481121 0.142207
0.734265 0.485582 0.145306
0.764612 0.490042 0.148406
0.794959 0.494503 0.151505
0.825305 0.498964 0.154605
0.855652 0.503425 0.157704
0.885999 0.507885 0.160804
0.916345 0.512346 0.163903
0.946692 0.516807 0.167003
0.977039 0.521268 0.170102
1.000000 0.525728 0.173202
0.040376 0.410225 0.080330
0.070723 0.414685 0.083430
0.101070 0.419146 0.086529
0.131416 0.423607 0.089629
0.161763 0.428068 0.092728
0.192110 0.432528 0.095828
0.222456 0.436989 0.098927
0.252803 0.441450 0.102027
0.283150 0.445911 0.105126
0.313496 0.450371 0.108226
0.343843 0.454832 0.111325
0.374189 0.459293 0.114425
0.404536 0.463753 0.117524
0.434883 0.468214 0.120624
0.465230 0.472675 0.123723
0.495576 0.477136 0.126823
0.525923 0.481596 0.129922
0.556270 0.486057 0.133022
0.586616 0.490518 0.136121
0.616963 0.494979 0.139221
0.647309 0.499439 0.142320
0.677656 0.503900 0.145420
0.708003 0.508361 0.148519
0.738349 0.512821 0.151619
0.768696 0.517282 0.154718
0.799043 0.521743 0.157818
0.829389 0.526204 0.160917
0.859736 0.530665 0.164017
0.890083 0.535125 0.167116
0.920429 0.539586 0.170216
0.950776 0.544047 0.173315
0.981123 0.548507 0.176415
1.000000 0.552968 0.179514
0.044460 0.437465 0.086643
0.074807 0.441925 0.089742
0.105154 0.446386 0.092842
0.135500 0.450847 0.095941
0.165847 0.455307 0.099041
0.196194 0.459768 0.102140
0.226540 0.464229 0.105240
0.256887 0.468690 0.108339
0.287234 0.473150 0.111439
0.317580 0.477611 0.114538
0.347927 0.482072 0.117638
0.378274 0.486533 0.120737
0.408620 0.490993 0.123837
0.438967 0.495454 0.126936
0.469314 0.499915 0.130036
0.499660 0.504376 0.133135
0.530007 0.508836 0.136235
0.560354 0.513297 0.139334
0.590700 0.517758 0.142434
0.621047 0.522218 0.145534
0.651394 0.526679 0.148633
0.681740 0.531140 0.151733
0.712087 0.535601 0.154832
0.742434 0.540061 0.157932
0.772780 0.544522 0.161031
0.803127 0.548983 0.164131
0.833474 0.553443 0.167230
0.863820 0.557904 0.170330
0.894167 0.562365 0.173429
0.924514 0.566826 0.176529
0.954860 0.571286 0.179628
0.985207 0.575747 0.182728
1.000000 0.580208 0.185827
0.048545 0.464704 0.092955
0.078891 0.469165 0.096055
0.109238 0.473626 0.099155
0.139585 0.478087 0.102254
0.169931 0.482547 0.105354
0.200278 0.487008 0.108453
0.230625 0.491469 0.111553
0.260971 0.495929 0.114652
0.291318 0.500390 0.117752
0.321665 0.504851 0.120851
0.352011 0.509312 0.123951
0.382358 0.513772 0.127050
0.412705 0.518233 0.130150
0.443051 0.522694 0.133249
0.473398 0.527155 0.136349
0.503745 0.531615 0.139448
0.534091 0.536076 0.142548
0.564438 0.540537 0.145647
0.594785 0.544997 0.148747
0.625131 0.549458 0.151846
0.655478 0.553919 0.154946
0.685825 0.558380 0.158045
0.716171 0.562840 0.161145
0.746518 0.567301 0.164244
0.776865 0.571762 0.167344
0.807211 0.576223 0.170443
0.837558 0.580683 0.173543
0.867905 0.585144 0.176642
0.898251 0.589605 0.179742
0.928598 0.594065 0.182841
0.958945 0.598526 0.185941
0.989291 0.602987 0.189040
1.000000 0.607448 0.192140
0.052629 0.491944 0.099268
0.082976 0.496405 0.102368
0.113322 0.500866 0.105467
0.143669 0.505326 0.108567
0.174016 0.509787 0.111666
0.204362 0.514248 0.114766
0.234709 0.518708 0.117865
0.265056 0.523169 0.120965
0.295402 0.527630 0.124064
0.325749 0.532091 0.127164
0.356096 0.536551 0.130263
0.386442 0.541012 0.133363
0.416789 0.545473 0.136462
0.447136 0.549934 0.139562
0.477482 0.554394 0.142661
0.507829 0.558855 0.145761
0.538176 0.563316 0.148860
0.568522 0.567777 0.151960
0.598869 0.572237 0.155059
0.629216 0.576698 0.158159
0.659562 0.581159 0.161258
0.689909 0.585619 0.164358
0.720256 0.590080 0.167457
0.750602 0.594541 0.170557
0.780949 0.599002 0.173656
0.811296 0.603462 0.176756
0.841642 0.607923 0.179855
0.871989 0.612384 0.182955
0.902335 0.616845 0.186054
0.932682 0.621305 0.189154
0.963029 0.625766 0.192253
0.993376 0.630227 0.195353
1.000000 0.634687 0.198452
0.056713 0.519184 0.105581
0.087060 0.523645 0.108680
0.117407 0.528105 0.111780
0.147753 0.532566 0.114879
0.178100 0.537027 0.117979
0.208447 0.541488 0.121078
0.238793 0.545948 0.124178
0.269140 0.550409 0.127277
0.299486 0.554870 0.130377
0.329833 0.559330 0.133476
0.360180 0.563791 0.136576
0.390526 0.568252 0.139675
0.420873 0.572713 0.142775
0.451220 0.577173 0.145874
0.481566 0.581634 0.148974
0.511913 0.586095 0.152073
0.542260 0.590556 0.155173
0.572606 0.595016 0.158272
0.602953 0.599477 0.161372
0.633300 0.603938 0.164471
0.663646 0.608398 0.167571
0.693993 0.612859 0.170670
0.724340 0.617320 0.173770
0.754686 0.621781 0.176869
0.785033 0.626241 0.179969
0.815380 0.630702 0.183069
0.845726 0.635163 0.186168
0.876073 0.639624 0.189268
0.906420 0.644084 0.192367
0.936766 0.648545 0.195467
0.967113 0.653006 0.198566
0.997460 0.657467 0.201666
1.000000 0.661927 0.204765
0.060797 0.546424 0.111893
0.091144 0.550884 0.114993
0.121491 0.555345 0.118092
0.151837 0.559806 0.121192
0.182184 0.564267 0.124291
0.212531 0.568727 0.127391
0.242877 0.573188 0.130490
0.273224 0.577649 0.133590
0.303571 0.582110 0.136690
0.333917 0.586570 0.139789
0.364264 0.591031 0.142889
0.394611 0.595492 0.145988
0.424957 0.599952 0.149088
0.455304 0.604413 0.152187
0.485651 0.608874 0.155287
0.515997 0.613335 0.158386
0.546344 0.617795 0.161486
0.576691 0.622256 0.164585
0.607037 0.626717 0.167685
0.637384 0.631178 0.170784
0.667731 0.635638 0.173884
0.698077 0.640099 0.176983
0.728424 0.644560 0.180083
0.758771 0.649020 0.183182
0.789117 0.653481 0.186282
0.819464 0.657942 0.189381
0.849811 0.662403 0.192481
0.880157 0.666863 0.195580
0.910504 0.671324 0.198680
0.940851 0.675785 0.201779
0.971197 0.680246 0.204879
1.000000 0.684706 0.207978
1.000000 0.689167 0.211078
0.064882 0.573664 0.118206
0.095228 0.578124 0.121306
0.125575 0.582585 0.124405
0.155922 0.587046 0.127505
0.186268 0.591506 0.130604
0.216615 0.595967 0.133704
0.246962 0.600428 0.136803
0.277308 0.604889 0.139903
0.307655 0.609349 0.143002
0.338002 0.613810 0.146102
0.368348 0.618271 0.149201
0.398695 0.622732 0.152301
0.429042 0.627192 0.155400
0.459388 0.631653 0.158500
0.489735 0.636114 0.161599
0.520082 0.640574 0.164699
0.550428 0.645035 0.167798
0.580775 0.649496 0.170898
0.611122 0.653957 0.173997
0.641468 0.658417 0.177097
0.671815 0.662878 0.180196
0.702162 0.667339 0.183296
0.732508 0.671800 0.186395
0.762855 0.676260 0.189495
0.793202 0.680721 0.192594
0.823548 0.685182 0.195694
0.853895 0.689642 0.198793
0.884242 0.694103 0.201893
0.914588 0.698564 0.204992
0.944935 0.703025 0.208092
0.975282 0.707485 0.211191
1.000000 0.711946 0.214291
1.000000 0.716407 0.217390
0.068966 0.600903 0.124519
0.099313 0.605364 0.127618
0.129659 0.609825 0.130718
0.160006 0.614285 0.133817
0.190353 0.618746 0.136917
0.220699 0.623207 0.140016
0.251046 0.627668 0.143116
0.281393 0.632128 0.146215
0.311739 0.636589 0.149315
0.342086 0.641050 0.152414
0.372433 0.645511 0.155514
0.402779 0.649971 0.158613
0.433126 0.654432 0.161713
0.463473 0.658893 0.164812
0.493819 0.663354 0.167912
0.524166 0.667814 0.171011
0.554513 0.672275 0.174111
0.584859 0.676736 0.177210
0.615206 0.681196 0.180310
0.645553 0.685657 0.183409
0.675899 0.690118 0.186509
0.706246 0.694579 0.189608
0.736592 0.699039 0.192708
0.766939 0.703500 0.195807
0.797286 0.707961 0.198907
0.827633 0.712422 0.202006
0.857979 0.716882 0.205106
0.888326 0.721343 0.208205
0.918673 0.725804 0.211305
0.949019 0.730264 0.214404
0.979366 0.734725 0.217504
1.000000 0.739186 0.220604
1.000000 0.743647 0.223703
0.073050 0.628143 0.130831
0.103397 0.632604 0.133931
0.133743 0.637065 0.137030
0.164090 0.641525 0.140130
0.194437 0.645986 0.143229
0.224783 0.650447 0.146329
0.255130 0.654907 0.149428
0.285477 0.659368 0.152528
0.315823 0.663829 0.155627
0.346170 0.668290 0.158727
0.376517 0.672750 0.161826
0.406863 0.677211 0.164926
0.437210 0.681672 0.168025
0.467557 0.686133 0.171125
0.497903 0.690593 0.174225
0.528250 0.695054 0.177324
0.558597 0.699515 0.180424
0.588943 0.703975 0.183523
0.619290 0.708436 0.186623
0.649637 0.712897 0.189722
0.679983 0.717358 0.192822
0.710330 0.721818 0.195921
0.740677 0.726279 0.199021
0.771023 0.730740 0.202120
0.801370 0.735201 0.205220
0.831717 0.739661 0.208319
0.862063 0.744122 0.211419
0.892410 0.748583 0.214518
0.922757 0.753043 0.217618
0.953103 0.757504 0.220717
0.983450 0.761965 0.223817
1.000000 0.766426 0.226916
1.000000 0.770886 0.230016
0.077134 0.655383 0.137144
0.107481 0.659844 0.140244
0.137828 0.664304 0.143343
0.168174 0.668765 0.146443
0.198521 0.673226 0.149542
0.228868 0.677687 0.152642
0.259214 0.682147 0.155741
0.289561 0.686608 0.158841
0.319908 0.691069 0.161940
0.350254 0.695529 0.165040
0.380601 0.699990 0.168139
0.410948 0.704451 0.171239
0.441294 0.708912 0.174338
0.471641 0.713372 0.177438
0.501988 0.717833 0.180537
0.532334 0.722294 0.183637
0.562681 0.726755 0.186736
0.593028 0.731215 0.189836
0.623374 0.735676 0.192935
0.653721 0.740137 0.196035
0.684068 0.744597 0.199134
0.714414 0.749058 0.202234
0.744761 0.753519 0.205333
0.775108 0.757980 0.208433
0.805454 0.762440 0.211532
0.835801 0.766901 0.214632
0.866148 0.771362 0.217731
0.896494 0.775823 0.220831
0.926841 0.780283 0.223930
0.957188 0.784744 0.227030
0.987534 0.789205 0.230129
1.000000 0.793666 0.233229
1.000000 0.798126 0.236328
0.081219 0.682623 0.143457
0.111565 0.687083 0.146556
0.141912 0.691544 0.149656
0.172259 0.696005 0.152755
0.202605 0.700466 0.155855
0.232952 0.704926 0.158954
0.263299 0.709387 0.162054
0.293645 0.713848 0.165153
0.323992 0.718309 0.168253
0.354339 0.722769 0.171352
0.384685 0.727230 0.174452
0.415032 0.731691 0.177551
0.445379 0.736151 0.180651
0.475725 0.740612 0.183750
0.506072 0.745073 0.186850
0.536419 0.749534 0.189949
0.566765 0.753994 0.193049
0.597112 0.758455 0.196148
0.627459 0.762916 0.199248
0.657805 0.767377 0.202347
0.688152 0.771837 0.205447
0.718499 0.776298 0.208546
0.748845 0.780759 0.211646
0.779192 0.785219 0.214745
0.809539 0.789680 0.217845
0.839885 0.794141 0.220944
0.870232 0.798602 0.224044
