CultChromeLUT.cube
TITLE "Cult Chrome LUT"
LUT_3D_SIZE 5
DOMAIN_MIN 0.0 0.0 0.0
DOMAIN_MAX 1.0 1.0 1.0
0.000000 0.000000 0.000000
0.217802 0.010074 0.004124
0.460575 0.045760 0.028920
0.703348 0.081446 0.053716
0.946122 0.117131 0.078512
0.007702 0.192306 0.029829
0.250476 0.227992 0.054625
0.493249 0.263678 0.079421
0.736022 0.299364 0.104217
0.978795 0.335050 0.129013
0.040376 0.410225 0.080330
0.283150 0.445911 0.105126
0.525923 0.481596 0.129922
0.768696 0.517282 0.154718
1.000000 0.552968 0.179514
0.073050 0.628143 0.130831
0.315823 0.663829 0.155627
0.558597 0.699515 0.180424
0.801370 0.735201 0.205220
1.000000 0.770886 0.230016
0.105724 0.846061 0.181333
0.348497 0.881747 0.206129
0.591271 0.917433 0.230925
0.834044 0.953119 0.255721
1.000000 0.988805 0.280517
0.000000 0.000000 0.164676
0.205220 0.021010 0.189472
0.447993 0.056695 0.214268
0.690766 0.092381 0.239064
0.933540 0.128067 0.263860
0.000000 0.203242 0.215177
0.237894 0.238928 0.239973
0.480667 0.274614 0.264769
0.723440 0.310300 0.289566
0.966213 0.345985 0.314362
0.027794 0.421160 0.265678
0.270568 0.456846 0.290475
0.513341 0.492532 0.315271
0.756114 0.528218 0.340067
0.998887 0.563904 0.364863
0.060468 0.639079 0.316180
0.303241 0.674765 0.340976
0.546015 0.710450 0.365772
0.788788 0.746136 0.390568
1.000000 0.781822 0.415364
0.093142 0.856997 0.366681
0.335915 0.892683 0.391477
0.578689 0.928369 0.416273
0.821462 0.964055 0.441069
1.000000 0.999740 0.465865
0.000000 0.000000 0.350024
0.192638 0.031945 0.374820
0.435411 0.067631 0.399617
0.678184 0.103317 0.424413
0.920958 0.139003 0.449209
0.000000 0.214178 0.400526
0.225312 0.249863 0.425322
0.468085 0.285549 0.450118
0.710858 0.321235 0.474914
0.953631 0.356921 0.499710
0.015212 0.432096 0.451027
0.257986 0.467782 0.475823
0.500759 0.503468 0.500619
0.743532 0.539154 0.525415
0.986305 0.574839 0.550211
0.047886 0.650014 0.501528
0.290659 0.685700 0.526324
0.533433 0.721386 0.551120
0.776206 0.757072 0.575916
1.000000 0.792758 0.600712
0.080560 0.867933 0.552029
0.323333 0.903618 0.576825
0.566107 0.939304 0.601621
0.808880 0.974990 0.626417
1.000000 1.000000 0.651213
0.000000 0.007195 0.535373
0.180056 0.042881 0.560169
0.422829 0.078567 0.584965
0.665602 0.114252 0.609761
0.908376 0.149938 0.634557
0.000000 0.225113 0.585874
0.212730 0.260799 0.610670
0.455503 0.296485 0.635466
0.698276 0.332171 0.660262
0.941049 0.367857 0.685058
0.002630 0.443032 0.636375
0.245403 0.478717 0.661171
0.488177 0.514403 0.685967
0.730950 0.550089 0.710763
0.973723 0.585775 0.735559
0.035304 0.660950 0.686876
0.278077 0.696636 0.711672
0.520851 0.732322 0.736468
0.763624 0.768007 0.761264
1.000000 0.803693 0.786060
0.067978 0.878868 0.737377
0.310751 0.914554 0.762173
0.553525 0.950240 0.786970
0.796298 0.985926 0.811766
1.000000 1.000000 0.836562
0.000000 0.018131 0.720721
0.167474 0.053816 0.745517
0.410247 0.089502 0.770313
0.653020 0.125188 0.795109
0.895793 0.160874 0.819905
0.000000 0.236049 0.771222
0.200148 0.271735 0.796018
0.442921 0.307421 0.820814
0.685694 0.343106 0.845610
0.928467 0.378792 0.870406
0.000000 0.453967 0.821723
0.232821 0.489653 0.846519
0.475595 0.525339 0.871315
0.718368 0.561025 0.896111
0.961141 0.596711 0.920908
0.022722 0.671886 0.872224
0.265495 0.707571 0.897021
0.508269 0.743257 0.921817
0.751042 0.778943 0.946613
0.993815 0.814629 0.971409
0.055396 0.889804 0.922726
0.298169 0.925490 0.947522
0.540943 0.961176 0.972318
0.783716 0.996861 0.997114
1.000000 1.000000 1.000000
